X:18
T:LESMRCH1- Lashley's March
S:Wright's Compleat Collection of CD's, pub. J. Johnson, c 1742
Q:120
L:1/4
M:6/4
K:D
d3d3|dcBABc|dcBAGF|GAFE2D|e3e3|edeefg|f3/2e/dcde|dgfe2d||\
dAAfAA|dAAfAA|fBBgBB|ga/g/f/e/fdA|dAAfAA|dAAfAA|agfbag|\
dgfe2d|dfadfa|dfadfa|egbegb|egbegb|dfadfa|dfadfa|\
agfbag|dgfe2d|]

